resources/svg/play-circle-o.svg

<svg xmlns="http://www.w3.org/2000/svg" viewBox="0 0 15 15" fill="none"><path d="M6.5 5.5L6.74807 5.06588C6.59332 4.97745 6.40319 4.97808 6.24904 5.06754C6.09488 5.15701 6 5.32176 6 5.5H6.5ZM6.5 9.5H6C6 9.67824 6.09488 9.84299 6.24904 9.93246C6.40319 10.0219 6.59332 10.0226 6.74807 9.93412L6.5 9.5ZM10 7.5L10.2481 7.93412C10.4039 7.8451 10.5 7.67943 10.5 7.5C10.5 7.32057 10.4039 7.1549 10.2481 7.06588L10 7.5ZM7.5 14C3.91015 14 1 11.0899 1 7.5H0C0 11.6421 3.35786 15 7.5 15V14ZM14 7.5C14 11.0899 11.0899 14 7.5 14V15C11.6421 15 15 11.6421 15 7.5H14ZM7.5 1C11.0899 1 14 3.91015 14 7.5H15C15 3.35786 11.6421 0 7.5 0V1ZM7.5 0C3.35786 0 0 3.35786 0 7.5H1C1 3.91015 3.91015 1 7.5 1V0ZM6 5.5V9.5H7V5.5H6ZM6.74807 9.93412L10.2481 7.93412L9.75193 7.06588L6.25193 9.06588L6.74807 9.93412ZM10.2481 7.06588L6.74807 5.06588L6.25193 5.93412L9.75193 7.93412L10.2481 7.06588Z" fill="black"/></svg>

<svg xmlns="http://www.w3.org/2000/svg" viewBox="0 0 15 15" fill="none"><path d="M6.5 5.5l.248-.434A.5.5 0 006 5.5h.5zm0 4H6a.5.5 0 00.748.434L6.5 9.5zm3.5-2l.248.434a.5.5 0 000-.868L10 7.5zM7.5 14A6.5 6.5 0 011 7.5H0A7.5 7.5 0 007.5 15v-1zM14 7.5A6.5 6.5 0 017.5 14v1A7.5 7.5 0 0015 7.5h-1zM7.5 1A6.5 6.5 0 0114 7.5h1A7.5 7.5 0 007.5 0v1zm0-1A7.5 7.5 0 000 7.5h1A6.5 6.5 0 017.5 1V0zM6 5.5v4h1v-4H6zm.748 4.434l3.5-2-.496-.868-3.5 2 .496.868zm3.5-2.868l-3.5-2-.496.868 3.5 2 .496-.868z" fill="currentColor"/></svg>
